SVG_Azure_All/Azure Firewall Threat Intelligence.svg

<?xml version="1.0" encoding="UTF-8" standalone="no"?>
<!-- Generated by Microsoft Visio, SVG Export Azure Firewall Threat Intelligence.svg Page-1 -->

<svg
   xmlns:dc="http://purl.org/dc/elements/1.1/"
   xmlns:cc="http://creativecommons.org/ns#"
   xmlns:rdf="http://www.w3.org/1999/02/22-rdf-syntax-ns#"
   xmlns:svg="http://www.w3.org/2000/svg"
   xmlns="http://www.w3.org/2000/svg"
   xmlns:sodipodi="http://sodipodi.sourceforge.net/DTD/sodipodi-0.dtd"
   xmlns:inkscape="http://www.inkscape.org/namespaces/inkscape"
   width="0.62985772in"
   height="0.78730255in"
   viewBox="0 0 45.349499 56.686094"
   xml:space="preserve"
   class="st6"
   version="1.1"
   id="svg45"
   sodipodi:docname="Azure Firewall Threat Intelligence.svg"
   style="font-size:12px;overflow:visible;color-interpolation-filters:sRGB;fill:none;fill-rule:evenodd;stroke-linecap:square;stroke-miterlimit:3"
   inkscape:version="0.92.5 (2060ec1f9f, 2020-04-08)"><metadata
   id="metadata49"><rdf:RDF><cc:Work
       rdf:about=""><dc:format>image/svg+xml</dc:format><dc:type
         rdf:resource="http://purl.org/dc/dcmitype/StillImage" /></cc:Work></rdf:RDF></metadata><sodipodi:namedview
   pagecolor="#ffffff"
   bordercolor="#666666"
   borderopacity="1"
   objecttolerance="10"
   gridtolerance="10"
   guidetolerance="10"
   inkscape:pageopacity="0"
   inkscape:pageshadow="2"
   inkscape:window-width="640"
   inkscape:window-height="480"
   id="namedview47"
   showgrid="false"
   inkscape:zoom="1.4193119"
   inkscape:cx="30.235834"
   inkscape:cy="37.780984"
   inkscape:window-x="0"
   inkscape:window-y="0"
   inkscape:window-maximized="0"
   inkscape:current-layer="svg45" />
	<style
   type="text/css"
   id="style2">
	<![CDATA[
		.st1 {fill:#3cd4c2;stroke:none;stroke-linecap:butt;stroke-width:34}
		.st2 {fill:url(#grad0-8);stroke:none;stroke-linecap:butt;stroke-width:34}
		.st3 {fill:#ffffff;fill-opacity:0.8;stroke:none;stroke-linecap:butt;stroke-width:34}
		.st4 {fill:#ffffff;stroke:none;stroke-linecap:butt;stroke-width:34}
		.st5 {fill:#ffffff;fill-opacity:0.6;stroke:none;stroke-linecap:butt;stroke-width:34}
		.st6 {fill:none;fill-rule:evenodd;font-size:12px;overflow:visible;stroke-linecap:square;stroke-miterlimit:3}
	]]>
	</style>

	<defs
   id="Patterns_And_Gradients">
		<linearGradient
   id="grad0-8"
   x1="0"
   y1="65.018076"
   x2="46.515065"
   y2="65.018076"
   gradientTransform="scale(0.89433391,1.1181506)"
   gradientUnits="userSpaceOnUse">
			<stop
   offset="0"
   stop-color="#42e8ca"
   stop-opacity="1"
   id="stop4" />
			<stop
   offset="1"
   stop-color="#3cd4c2"
   stop-opacity="1"
   id="stop6" />
		</linearGradient>
	</defs>
	<g
   id="g43"
   transform="translate(-34.000632,-34.0043)">
		<title
   id="title10">Page-1</title>
		<g
   id="group8084-1"
   transform="translate(34,-34.0157)">
			<title
   id="title12">Azure Firewall Threat Intelligence</title>
			<g
   id="group8085-2">
				<title
   id="title14">Sheet.8085</title>
				<g
   id="shape8086-3">
					<title
   id="title16">Sheet.8086</title>
					<path
   d="m 45.35,94.48 c 0,15.25 -18.01,27.52 -21.93,30.01 a 1.41954,1.45238 0 0 1 -1.49,0 C 18.01,122 0,109.73 0,94.48 V 76.15 a 1.42569,1.45868 0 0 1 1.39,-1.46 c 14.01,-0.37 10.79,-6.67 21.29,-6.67 10.51,0 7.27,6.3 21.28,6.67 a 1.42569,1.45868 0 0 1 1.39,1.46 z"
   class="st1"
   id="path18"
   inkscape:connector-curvature="0"
   style="fill:#3cd4c2;stroke:none;stroke-width:34;stroke-linecap:butt" />
				</g>
				<g
   id="shape8087-5"
   transform="translate(1.88142,-2.33501)">
					<title
   id="title21">Sheet.8087</title>
					<path
   d="m 41.59,96.99 c 0,13.98 -16.52,25.23 -20.11,27.52 a 1.29329,1.32321 0 0 1 -1.37,0 C 16.52,122.22 0,110.96 0,96.99 V 80.16 a 1.3056,1.33581 0 0 1 1.27,-1.33 c 12.85,-0.36 9.9,-6.13 19.53,-6.13 9.64,0 6.68,5.77 19.52,6.13 a 1.3056,1.33581 0 0 1 1.28,1.33 z"
   class="st2"
   id="path23"
   inkscape:connector-curvature="0"
   style="fill:url(#grad0-8);stroke:none;stroke-width:34;stroke-linecap:butt" />
				</g>
				<g
   id="shape8088-9"
   transform="translate(0.344876,-24.3121)">
					<title
   id="title26">Sheet.8088</title>
					<path
   d="m 28.41,113.92 a 4.779,4.88956 -180 0 0 -4.66,3.83 H 6.81 A 3.07925,3.15049 -180 0 0 4.9,118.44 L 0,122.48 a 21.2469,21.7384 -180 0 0 0.54,2.23 l 5.65,-4.66 a 1.01615,1.03966 0 0 1 0.63,-0.22 h 16.94 a 4.76976,4.88011 -180 1 0 4.66,-5.93 z m 0,7.67 a 2.73438,2.79764 0 1 1 2.73,-2.79 2.73746,2.80079 0 0 1 -2.73,2.79 z"
   class="st3"
   id="path28"
   inkscape:connector-curvature="0"
   style="fill:#ffffff;fill-opacity:0.8;stroke:none;stroke-width:34;stroke-linecap:butt" />
				</g>
				<g
   id="shape8089-11"
   transform="translate(10.8871,-15.2293)">
					<title
   id="title31">Sheet.8089</title>
					<path
   d="m 28.28,121.47 a 3.07925,3.15049 -180 0 0 -1.91,-0.68 H 9.44 a 4.77284,4.88326 -180 1 0 0,2.08 h 16.93 a 1.01923,1.04281 0 0 1 0.64,0.23 l 1.96,1.61 c 0.4,-0.56 0.79,-1.14 1.16,-1.72 z m -23.49,3.15 a 2.73438,2.79764 0 1 1 2.73,-2.79 2.73746,2.80079 0 0 1 -2.73,2.8 z"
   class="st4"
   id="path33"
   inkscape:connector-curvature="0"
   style="fill:#ffffff;stroke:none;stroke-width:34;stroke-linecap:butt" />
				</g>
				<g
   id="shape8090-13"
   transform="translate(9.39987,-32.5097)">
					<title
   id="title36">Sheet.8090</title>
					<path
   d="m 35.95,122.04 -7.67,-6.3 a 3.0577,3.12844 -180 0 0 -1.91,-0.69 H 9.44 a 4.77284,4.88326 -180 1 0 0,2.08 h 16.93 a 1.03463,1.05857 0 0 1 0.64,0.23 l 8.94,7.35 z M 4.79,118.89 a 2.73438,2.79764 0 1 1 2.74,-2.8 2.73746,2.80079 0 0 1 -2.74,2.8 z"
   class="st5"
   id="path38"
   inkscape:connector-curvature="0"
   style="fill:#ffffff;fill-opacity:0.6;stroke:none;stroke-width:34;stroke-linecap:butt" />
				</g>
			</g>
		</g>
	</g>
</svg>

<?xml version="1.0" encoding="UTF-8" standalone="no"?>
<!DOCTYPE svg PUBLIC "-//W3C//DTD SVG 1.1//EN" "http://www.w3.org/Graphics/SVG/1.1/DTD/svg11.dtd">
<!-- Generated by Microsoft Visio, SVG Export Azure Firewall Threat Intelligence.svg Page-1 -->
<svg xmlns="http://www.w3.org/2000/svg" xmlns:xlink="http://www.w3.org/1999/xlink" xmlns:ev="http://www.w3.org/2001/xml-events"
		width="1.57437in" height="1.73206in" viewBox="0 0 113.354 124.709" xml:space="preserve" color-interpolation-filters="sRGB"
		class="st6">
	<style type="text/css">
	<![CDATA[
		.st1 {fill:#3cd4c2;stroke:none;stroke-linecap:butt;stroke-width:34}
		.st2 {fill:url(#grad0-8);stroke:none;stroke-linecap:butt;stroke-width:34}
		.st3 {fill:#ffffff;fill-opacity:0.8;stroke:none;stroke-linecap:butt;stroke-width:34}
		.st4 {fill:#ffffff;stroke:none;stroke-linecap:butt;stroke-width:34}
		.st5 {fill:#ffffff;fill-opacity:0.6;stroke:none;stroke-linecap:butt;stroke-width:34}
		.st6 {fill:none;fill-rule:evenodd;font-size:12px;overflow:visible;stroke-linecap:square;stroke-miterlimit:3}
	]]>
	</style>

	<defs id="Patterns_And_Gradients">
		<linearGradient id="grad0-8" x1="0" y1="0" x2="1" y2="0" gradientTransform="rotate(90 0.5 0.5)">
			<stop offset="0" stop-color="#42e8ca" stop-opacity="1"/>
			<stop offset="1" stop-color="#3cd4c2" stop-opacity="1"/>
		</linearGradient>
	</defs>
	<g>
		<title>Page-1</title>
		<g id="group7889-1" transform="translate(34,-34.0157)">
			<title>Azure Firewall Threat Intelligence</title>
			<g id="group7890-2">
				<title>Sheet.7890</title>
				<g id="shape7891-3">
					<title>Sheet.7891</title>
					<path d="M45.35 94.48 C45.35 109.73 27.34 122 23.42 124.49 A1.41954 1.45238 0 0 1 21.93 124.49 C18.01 122 0 109.73
								 0 94.48 L0 76.15 A1.42569 1.45868 0 0 1 1.39 74.69 C15.4 74.32 12.18 68.02 22.68 68.02 C33.19 68.02
								 29.95 74.32 43.96 74.69 A1.42569 1.45868 0 0 1 45.35 76.15 L45.35 94.48 Z" class="st1"/>
				</g>
				<g id="shape7892-5" transform="translate(1.88142,-2.33501)">
					<title>Sheet.7892</title>
					<path d="M41.59 96.99 C41.59 110.97 25.07 122.22 21.48 124.51 A1.29329 1.32321 0 0 1 20.11 124.51 C16.52 122.22
								 0 110.96 0 96.99 L0 80.16 A1.3056 1.33581 0 0 1 1.27 78.83 C14.12 78.47 11.17 72.7 20.8 72.7 C30.44
								 72.7 27.48 78.47 40.32 78.83 A1.3056 1.33581 0 0 1 41.6 80.16 L41.59 96.99 Z" class="st2"/>
				</g>
				<g id="shape7893-9" transform="translate(0.344876,-24.3121)">
					<title>Sheet.7893</title>
					<path d="M28.41 113.92 A4.779 4.88956 -180 0 0 23.75 117.75 L6.81 117.75 A3.07925 3.15049 -180 0 0 4.9 118.44
								 L0 122.48 A21.2469 21.7384 -180 0 0 0.54 124.71 L6.19 120.05 A1.01615 1.03966 0 0 1 6.82 119.83
								 L23.76 119.83 A4.76976 4.88011 -180 1 0 28.42 113.9 L28.41 113.92 ZM28.41 121.59 A2.73438 2.79764
								 0 1 1 31.14 118.8 A2.73746 2.80079 0 0 1 28.41 121.59 Z" class="st3"/>
				</g>
				<g id="shape7894-11" transform="translate(10.8871,-15.2293)">
					<title>Sheet.7894</title>
					<path d="M28.28 121.47 A3.07925 3.15049 -180 0 0 26.37 120.79 L9.44 120.79 A4.77284 4.88326 -180 1 0 9.44 122.87
								 L26.37 122.87 A1.01923 1.04281 0 0 1 27.01 123.1 L28.97 124.71 C29.37 124.15 29.76 123.57 30.13
								 122.99 L28.28 121.47 ZM4.79 124.62 A2.73438 2.79764 0 1 1 7.52 121.83 A2.73746 2.80079 0 0 1 4.79
								 124.63 L4.79 124.62 Z" class="st4"/>
				</g>
				<g id="shape7895-13" transform="translate(9.39987,-32.5097)">
					<title>Sheet.7895</title>
					<path d="M35.95 122.04 L28.28 115.74 A3.0577 3.12844 -180 0 0 26.37 115.05 L9.44 115.05 A4.77284 4.88326 -180
								 1 0 9.44 117.13 L26.37 117.13 A1.03463 1.05857 0 0 1 27.01 117.36 L35.95 124.71 L35.95 122.04 ZM4.79
								 118.89 A2.73438 2.79764 0 1 1 7.53 116.09 A2.73746 2.80079 0 0 1 4.79 118.89 L4.79 118.89 Z"
							class="st5"/>
				</g>
			</g>
		</g>
	</g>
</svg>
